public/dist/images/ico-paw.svg

<?xml version="1.0" encoding="UTF-8" standalone="no"?>
<svg width="73px" height="64px" viewBox="0 0 73 64" version="1.1" xmlns="http://www.w3.org/2000/svg" xmlns:xlink="http://www.w3.org/1999/xlink" xmlns:sketch="http://www.bohemiancoding.com/sketch/ns">
    <!-- Generator: Sketch 3.2.2 (9983) - http://www.bohemiancoding.com/sketch -->
    <title>Imported Layers</title>
    <desc>Created with Sketch.</desc>
    <defs>
        <path d="M744.001383,484.392241 C749.134614,483.717695 751.777845,483.507695 753.974152,484.519513 C758.302922,486.524059 758.903076,490.698604 756.904691,495.01315 C756.00446,496.909513 755.436229,498.137695 752.371614,500.504968 C752.371614,500.504968 749.581537,501.656786 747.589537,506.454968 C745.188922,511.106786 746.108306,513.989513 746.108306,513.989513 C746.287076,517.839513 745.725229,519.016786 744.837768,520.91315 C742.826614,525.240423 739.23846,527.467695 734.903306,525.46315 C732.713383,524.451332 731.168306,522.294059 728.378229,517.960423 C728.378229,517.960423 722.689537,509.585877 720.889076,503.76315 C719.599383,499.56315 721.616922,495.235877 721.616922,495.235877 L722.248999,493.912241 C722.248999,493.912241 724.330383,489.394059 728.301614,487.854059 C733.996691,485.658604 744.007768,484.398604 744.001383,484.392241 L744.001383,484.392241 Z M711.752691,502.687695 C713.853229,498.16315 709.837306,491.869513 702.775922,488.598604 C695.727306,485.334059 688.295614,486.352241 686.20146,490.857695 C684.094537,495.369513 688.116845,501.682241 695.171845,504.940423 C702.226845,508.204968 709.645768,507.19315 711.752691,502.687695 L711.752691,502.687695 Z M720.474076,516.235877 C720.474076,512.188604 715.366383,508.904968 709.064768,508.892241 C702.743999,508.879513 697.623537,512.144059 697.617152,516.178604 C697.597999,520.225877 702.712076,523.496786 709.032845,523.515877 C715.328076,523.528604 720.467691,520.270423 720.474076,516.235877 L720.474076,516.235877 Z M720.595383,483.685877 C722.695922,479.167695 718.673614,472.861332 711.631383,469.60315 C704.569999,466.344968 697.144691,467.356786 695.044152,471.862241 C692.943614,476.374059 696.965922,482.680423 704.020922,485.951332 C711.069537,489.215877 718.48846,488.197695 720.595383,483.685877 L720.595383,483.685877 Z M721.821229,464.200423 C718.724691,466.828604 719.535537,472.829513 723.615306,477.621332 C727.707845,482.419513 733.517845,484.194968 736.607999,481.57315 C739.691768,478.957695 738.893691,472.956786 734.801152,468.158604 C730.721383,463.366786 724.911383,461.597695 721.821229,464.200423 L721.821229,464.200423 Z" id="path-1"></path>
    </defs>
    <g id="Welcome" stroke="none" stroke-width="1" fill="none" fill-rule="evenodd" sketch:type="MSPage">
        <g id="конец-оплаты" sketch:type="MSArtboardGroup" transform="translate(-685.000000, -463.000000)">
            <g id="Imported-Layers">
                <use fill="#F5A623" fill-rule="evenodd" sketch:type="MSShapeGroup" transform="translate(721.820712, 494.603250) scale(-1, 1) translate(-721.820712, -494.603250) " xlink:href="#path-1"></use>
                <use fill="none" xlink:href="#path-1"></use>
            </g>
        </g>
    </g>
</svg>

<svg width="73" height="64" viewBox="0 0 73 64" xmlns="http://www.w3.org/2000/svg" xmlns:xlink="http://www.w3.org/1999/xlink"><title>Imported Layers</title><desc>Created with Sketch.</desc><defs><path d="M744 484.392c5.135-.674 7.778-.884 9.974.128 4.33 2.004 4.93 6.18 2.93 10.493-.9 1.897-1.468 3.125-4.532 5.492 0 0-2.79 1.152-4.782 5.95-2.4 4.652-1.482 7.535-1.482 7.535.18 3.85-.383 5.027-1.27 6.923-2.01 4.327-5.6 6.555-9.935 4.55-2.19-1.012-3.735-3.17-6.525-7.503 0 0-5.688-8.374-7.49-14.197-1.29-4.2.73-8.527.73-8.527l.63-1.324s2.082-4.518 6.054-6.058c5.695-2.195 15.706-3.455 15.7-3.462zm-32.247 18.296c2.1-4.525-1.916-10.818-8.977-14.09-7.05-3.264-14.48-2.246-16.575 2.26-2.105 4.512 1.917 10.824 8.972 14.082 7.055 3.265 14.474 2.253 16.58-2.252zm8.72 13.548c0-4.047-5.107-7.33-11.408-7.344-6.32-.012-11.44 3.252-11.448 7.287-.02 4.046 5.095 7.317 11.416 7.336 6.295.013 11.435-3.246 11.44-7.28zm.122-32.55c2.1-4.518-1.92-10.825-8.964-14.083-7.06-3.258-14.485-2.246-16.586 2.26-2.1 4.51 1.922 10.817 8.977 14.088 7.05 3.266 14.468 2.248 16.575-2.264zm1.226-19.486c-3.095 2.63-2.284 8.63 1.795 13.42 4.093 4.8 9.903 6.575 12.993 3.953 3.084-2.615 2.286-8.616-1.807-13.414-4.08-4.793-9.89-6.562-12.98-3.96z" id="a"/></defs><g transform="translate(-685 -463)" fill="none"><use fill="#F5A623" transform="matrix(-1 0 0 1 1443.642 0)" xlink:href="#a"/><use xlink:href="#a"/></g></svg>
